contributed-vectors/careem.svg

<svg xmlns="http://www.w3.org/2000/svg" xml:space="preserve" style="fill-rule:evenodd;clip-rule:evenodd;stroke-linejoin:round;stroke-miterlimit:2" viewBox="0 0 192 192"><path d="M164.5 21.5c0-5.519-4.481-10-10-10h-133c-5.519 0-10 4.481-10 10v133c0 5.519 4.481 10 10 10h133c5.519 0 10-4.481 10-10v-133Z" style="fill:#98dc9a" transform="translate(8 8)"/><path d="M47.221 96.851c.465 26.608 22.167 47.935 48.779 47.935a48.784 48.784 0 0 0 37.372-17.427l-14.201-11.916A30.247 30.247 0 0 1 96 126.247c-16.499 0-29.955-13.222-30.243-29.719l-18.536.323Z" style="fill:#fafffa" transform="matrix(.7552 0 0 .7552 27.502 23.502)"/><path d="M106.975 143.536a48.785 48.785 0 0 0 26.397-16.177l-14.201-11.916a30.247 30.247 0 0 1-16.367 10.029l4.171 18.064Z" style="fill:#fafffa" transform="rotate(-115.688 93.637 75.605) scale(.75519)"/><circle cx="74.3" cy="64.537" r="14.369" style="fill:#fafffa" transform="matrix(.73195 0 0 .73195 27.146 26.21)"/></svg>

<?xml version="1.0" encoding="UTF-8" standalone="no"?>
<!DOCTYPE svg PUBLIC "-//W3C//DTD SVG 1.1//EN" "http://www.w3.org/Graphics/SVG/1.1/DTD/svg11.dtd">
<svg width="100%" height="100%" viewBox="0 0 192 192" version="1.1" xmlns="http://www.w3.org/2000/svg" xmlns:xlink="http://www.w3.org/1999/xlink" xml:space="preserve" xmlns:serif="http://www.serif.com/" style="fill-rule:evenodd;clip-rule:evenodd;stroke-linejoin:round;stroke-miterlimit:2;">
    <g id="Layer1">
        <g transform="matrix(1,0,0,1,8,8)">
            <path d="M164.5,21.5C164.5,15.981 160.019,11.5 154.5,11.5L21.5,11.5C15.981,11.5 11.5,15.981 11.5,21.5L11.5,154.5C11.5,160.019 15.981,164.5 21.5,164.5L154.5,164.5C160.019,164.5 164.5,160.019 164.5,154.5L164.5,21.5Z" style="fill:rgb(152,220,154);"/>
        </g>
        <g transform="matrix(0.731953,0,0,0.731953,26.8047,25.7325)">
            <g transform="matrix(1.03175,0,0,1.03175,0.952406,-3.04759)">
                <path d="M47.221,96.851C47.686,123.459 69.388,144.786 96,144.786C110.421,144.786 124.103,138.406 133.372,127.359L119.171,115.443C113.424,122.292 104.941,126.247 96,126.247C79.501,126.247 66.045,113.025 65.757,96.528L47.221,96.851Z" style="fill:rgb(250,255,250);"/>
            </g>
            <g transform="matrix(-0.447231,-0.929776,0.929776,-0.447231,53.6757,228.193)">
                <path d="M106.975,143.536C117.297,141.153 126.563,135.474 133.372,127.359L119.171,115.443C114.949,120.474 109.204,123.995 102.804,125.472L106.975,143.536Z" style="fill:rgb(250,255,250);"/>
            </g>
            <g transform="matrix(1,0,0,1,0.46645,0.653028)">
                <circle cx="74.3" cy="64.537" r="14.369" style="fill:rgb(250,255,250);"/>
            </g>
        </g>
    </g>
</svg>
